src/static/sponsors/gnosis.svg

<svg id="Isolation_Mode" xmlns="http://www.w3.org/2000/svg" viewBox="0 0 697.7 119.5"><style>.st0{fill:#00a6c4}</style><path class="st0" d="M399.6 64.3v22.6c-6.2 4.7-15.4 8-23.8 8-18.1 0-32.2-13.6-32.2-31.1s14.3-30.9 32.9-30.9c8.8 0 17.5 3.3 23.6 8.6l-5.9 7.6c-4.7-4.4-11.3-7-17.7-7-12.5 0-22.3 9.5-22.3 21.7 0 12.3 9.9 21.8 22.4 21.8 4.6 0 9.7-1.6 14.1-4.2V64.3h8.9zm61.6 30.1l-32.7-44v44h-10.3V33.1h10.2l32.9 44.1V33.1h10.2v61.3h-10.3zm90.2-30.7c0 17.5-14.2 31.1-32.5 31.1s-32.5-13.6-32.5-31.1c0-17.6 14.2-30.9 32.5-30.9 18.4 0 32.5 13.4 32.5 30.9zm-54.5 0c0 12.2 10.1 21.8 22.1 21.8 12 0 21.8-9.6 21.8-21.8 0-12.2-9.8-21.6-21.8-21.6-12.1 0-22.1 9.5-22.1 21.6zm111.2-24.8l-4.3 9.1c-6.7-4-13.3-5.7-18-5.7-6 0-10 2.3-10 6.4 0 13.4 33.1 6.2 33 28.3 0 11-9.6 17.7-23.1 17.7-9.6 0-18.7-3.9-25.1-9.7l4.5-8.9c6.3 5.8 14.2 8.9 20.8 8.9 7.2 0 11.5-2.7 11.5-7.4 0-13.7-33.1-6-33.1-27.9 0-10.5 9-17.1 22.3-17.1 8 0 15.8 2.6 21.5 6.3zm16.8 55.5V33.1h10.3v61.3h-10.3zm72-55.5l-4.3 9.1c-6.7-4-13.3-5.7-18-5.7-6 0-10 2.3-10 6.4 0 13.4 33.1 6.2 33 28.3 0 11-9.6 17.7-23.1 17.7-9.6 0-18.7-3.9-25.1-9.7l4.5-8.9c6.3 5.8 14.2 8.9 20.8 8.9 7.2 0 11.5-2.7 11.5-7.4 0-13.7-33.1-6-33.1-27.9 0-10.5 9-17.1 22.3-17.1 8 0 15.8 2.6 21.5 6.3zm-496.2-9l-4.4 4.4c3.5 5.5 4.6 12.4 2.2 19-4 11.2-16.4 17.1-27.7 13.1-1.6-.6-3.1-1.3-4.4-2.2l-14.1 14.1L140 65.9c-5.7 3.8-13 4.9-19.9 2.5-11.6-4.2-17.6-16.9-13.4-28.4.6-1.8 1.5-3.4 2.5-4.9l-5.3-5.3-1 1.7c-5.5 9-8.5 19.4-8.5 30.1-.1 31.9 25.9 58 57.8 58h.1c31.9 0 57.8-25.9 57.9-57.8 0-10.6-2.9-21-8.4-30.1l-1.1-1.8z"/><path class="st0" d="M115.7 41.6c-1.5 2-2.4 4.5-2.4 7.2 0 6.5 5.3 11.8 11.8 11.8 2.7 0 5.2-.9 7.2-2.5l-16.6-16.5zm57.9 15.5c1.9 1.3 4.1 2 6.6 2 6.5 0 11.8-5.3 11.8-11.8 0-2.4-.7-4.7-2-6.6l-16.4 16.4zm-21.1 12.4l-47.8-48 1.9-2C118.4 7 134.5 0 151.8 0h.1c17.5 0 34.3 7.5 46 20.5l1.8 2-47.2 47zm-40-48l40 40.1L192 22.3c-10.6-10.6-25-16.7-40-16.7h-.1c-14.9 0-28.8 5.6-39.4 15.9zm-12.7 78.9l-5.6-.4c-23.8-1.5-56.6-7.4-77.8-26.5C3.3 61.8.8 50.7.7 50.2L0 46.8h86.6l-.5 3.2c-.4 2.9-.6 5.9-.6 8.8 0 13.2 3.8 26 11.1 36.9l3.2 4.7zm104.8 0l3.1-4.7c7.3-10.9 11.1-23.6 11.1-36.7 0-3-.2-6.1-.6-9l-.4-3.2h86.6l-.7 3.4c-.1.5-2.6 11.6-15.6 23.3-21.2 19.1-54.1 25-77.9 26.5l-5.6.4z"/></svg>

<svg width="698px" height="120px" viewBox="0 0 698 120" version="1.1" xmlns="http://www.w3.org/2000/svg" xmlns:xlink="http://www.w3.org/1999/xlink">
    <g id="Page-1" stroke="none" stroke-width="1" fill="none" fill-rule="evenodd">
        <g id="gnosis" fill="#00A6C4" fill-rule="nonzero">
            <path d="M399.6,64.3 L399.6,86.9 C393.4,91.6 384.2,94.9 375.8,94.9 C357.7,94.9 343.6,81.3 343.6,63.8 C343.6,46.3 357.9,32.9 376.5,32.9 C385.3,32.9 394,36.2 400.1,41.5 L394.2,49.1 C389.5,44.7 382.9,42.1 376.5,42.1 C364,42.1 354.2,51.6 354.2,63.8 C354.2,76.1 364.1,85.6 376.6,85.6 C381.2,85.6 386.3,84 390.7,81.4 L390.7,64.3 L399.6,64.3 Z M461.2,94.4 L428.5,50.4 L428.5,94.4 L418.2,94.4 L418.2,33.1 L428.4,33.1 L461.3,77.2 L461.3,33.1 L471.5,33.1 L471.5,94.4 L461.2,94.4 Z M551.4,63.7 C551.4,81.2 537.2,94.8 518.9,94.8 C500.6,94.8 486.4,81.2 486.4,63.7 C486.4,46.1 500.6,32.8 518.9,32.8 C537.3,32.8 551.4,46.2 551.4,63.7 Z M496.9,63.7 C496.9,75.9 507,85.5 519,85.5 C531,85.5 540.8,75.9 540.8,63.7 C540.8,51.5 531,42.1 519,42.1 C506.9,42.1 496.9,51.6 496.9,63.7 Z M608.1,38.9 L603.8,48 C597.1,44 590.5,42.3 585.8,42.3 C579.8,42.3 575.8,44.6 575.8,48.7 C575.8,62.1 608.9,54.9 608.8,77 C608.8,88 599.2,94.7 585.7,94.7 C576.1,94.7 567,90.8 560.6,85 L565.1,76.1 C571.4,81.9 579.3,85 585.9,85 C593.1,85 597.4,82.3 597.4,77.6 C597.4,63.9 564.3,71.6 564.3,49.7 C564.3,39.2 573.3,32.6 586.6,32.6 C594.6,32.6 602.4,35.2 608.1,38.9 Z M624.9,94.4 L624.9,33.1 L635.2,33.1 L635.2,94.4 L624.9,94.4 Z M696.9,38.9 L692.6,48 C685.9,44 679.3,42.3 674.6,42.3 C668.6,42.3 664.6,44.6 664.6,48.7 C664.6,62.1 697.7,54.9 697.6,77 C697.6,88 688,94.7 674.5,94.7 C664.9,94.7 655.8,90.8 649.4,85 L653.9,76.1 C660.2,81.9 668.1,85 674.7,85 C681.9,85 686.2,82.3 686.2,77.6 C686.2,63.9 653.1,71.6 653.1,49.7 C653.1,39.2 662.1,32.6 675.4,32.6 C683.4,32.6 691.2,35.2 696.9,38.9 Z M200.7,29.9 L196.3,34.3 C199.8,39.8 200.9,46.7 198.5,53.3 C194.5,64.5 182.1,70.4 170.8,66.4 C169.2,65.8 167.7,65.1 166.4,64.2 L152.3,78.3 L140,65.9 C134.3,69.7 127,70.8 120.1,68.4 C108.5,64.2 102.5,51.5 106.7,40 C107.3,38.2 108.2,36.6 109.2,35.1 L103.9,29.8 L102.9,31.5 C97.4,40.5 94.4,50.9 94.4,61.6 C94.3,93.5 120.3,119.6 152.2,119.6 L152.3,119.6 C184.2,119.6 210.1,93.7 210.2,61.8 C210.2,51.2 207.3,40.8 201.8,31.7 L200.7,29.9 Z" id="Shape"></path>
            <path d="M115.7,41.6 C114.2,43.6 113.3,46.1 113.3,48.8 C113.3,55.3 118.6,60.6 125.1,60.6 C127.8,60.6 130.3,59.7 132.3,58.1 L115.7,41.6 Z M173.6,57.1 C175.5,58.4 177.7,59.1 180.2,59.1 C186.7,59.1 192,53.8 192,47.3 C192,44.9 191.3,42.6 190,40.7 L173.6,57.1 Z M152.5,69.5 L104.7,21.5 L106.6,19.5 C118.4,7 134.5,0 151.8,0 L151.9,0 C169.4,0 186.2,7.5 197.9,20.5 L199.7,22.5 L152.5,69.5 Z M112.5,21.5 L152.5,61.6 L192,22.3 C181.4,11.7 167,5.6 152,5.6 L151.9,5.6 C137,5.6 123.1,11.2 112.5,21.5 Z M99.8,100.4 L94.2,100 C70.4,98.5 37.6,92.6 16.4,73.5 C3.3,61.8 0.8,50.7 0.7,50.2 L0,46.8 L86.6,46.8 L86.1,50 C85.7,52.9 85.5,55.9 85.5,58.8 C85.5,72 89.3,84.8 96.6,95.7 L99.8,100.4 Z M204.6,100.4 L207.7,95.7 C215,84.8 218.8,72.1 218.8,59 C218.8,56 218.6,52.9 218.2,50 L217.8,46.8 L304.4,46.8 L303.7,50.2 C303.6,50.7 301.1,61.8 288.1,73.5 C266.9,92.6 234,98.5 210.2,100 L204.6,100.4 Z" id="Shape"></path>
        </g>
    </g>
</svg>
